; generated by PrusaSlicer 2.3.0+win64 on 2021-06-20 at 20:23:41 UTC

; 

; external perimeters extrusion width = 0.45mm
; perimeters extrusion width = 0.45mm
; infill extrusion width = 0.45mm
; solid infill extrusion width = 0.45mm
; top infill extrusion width = 0.40mm
; first layer extrusion width = 0.42mm

M73 P0 R18
M73 Q0 S19
M201 X1000 Y1000 Z200 E5000 ; sets maximum accelerations, mm/sec^2
M203 X200 Y200 Z12 E120 ; sets maximum feedrates, mm/sec
M204 P1250 R1250 T1250 ; sets acceleration (P, T) and retract acceleration (R), mm/sec^2
M205 X8.00 Y8.00 Z0.40 E4.50 ; sets the jerk limits, mm/sec
M205 S0 T0 ; sets the minimum extruding and travel feed rate, mm/sec
M107
;TYPE:Custom
M862.3 P "MK3S" ; printer model check
M862.1 P0.4 ; nozzle diameter check
M115 U3.9.3 ; tell printer latest fw version
G90 ; use absolute coordinates
M83 ; extruder relative mode
M104 S240 ; set extruder temp
M140 S85 ; set bed temp
M190 S85 ; wait for bed temp
M109 S240 ; wait for extruder temp
G28 W ; home all without mesh bed level
G80 ; mesh bed leveling
G1 Y-3.0 F1000.0 ; go outside print area
G92 E0.0
G1 X60.0 E9.0 F1000.0 ; intro line
M73 Q0 S18
G1 X100.0 E12.5 F1000.0 ; intro line
G92 E0.0
M221 S95

; Don't change E values below. Excessive value can damage the printer.
M907 E430 ; set extruder motor current
G21 ; set units to millimeters
G90 ; use absolute coordinates
M83 ; use relative distances for extrusion
M900 K0.08 ; Filament gcode LA 1.5
M900 K45 ; Filament gcode LA 1.0
;LAYER_CHANGE
;Z:0.2
;HEIGHT:0.2
;BEFORE_LAYER_CHANGE
G92 E0.0
;0.2


G1 E-1.40000 F2100.000
G1 Z0.200 F10800.000
;AFTER_LAYER_CHANGE
;0.2
G1 Z0.400
G1 X96.823 Y102.797
G1 Z0.200
G1 E1.40000 F2100.000
M204 S1000
;TYPE:Skirt
;WIDTH:0.42
G1 F1200.000
G1 X137.069 Y98.096 E1.27045
G1 X140.944 Y98.096 E0.12152
G1 X141.489 Y98.159 E0.01720
G1 X142.022 Y98.333 E0.01758
G1 X142.512 Y98.615 E0.01771
G1 X142.934 Y98.990 E0.01771
G1 X143.271 Y99.443 E0.01771
G1 X143.534 Y100.034 E0.02026
G1 X143.651 Y100.665 E0.02014
G1 X143.635 Y104.902 E0.13284
G1 X143.486 Y105.506 E0.01950
G1 X143.204 Y106.064 E0.01963
G1 X142.805 Y106.542 E0.01950
G1 X142.310 Y106.918 E0.01950
G1 X141.562 Y107.224 E0.02536
G1 X123.953 Y111.446 E0.56775
M73 Q1 S18
G1 X122.324 Y111.781 E0.05216
G1 X120.702 Y111.899 E0.05097
M73 P1 R18
G1 X97.352 Y111.896 E0.73214
G1 X96.536 Y111.705 E0.02625
G1 X95.816 Y111.278 E0.02625
G1 X95.258 Y110.654 E0.02625
G1 X94.912 Y109.892 E0.02625
G1 X94.811 Y109.155 E0.02333
G1 X94.811 Y105.388 E0.11809
G1 X94.906 Y104.733 E0.02078
G1 X95.178 Y104.075 E0.02231
G1 X95.610 Y103.510 E0.02231
G1 X96.168 Y103.076 E0.02218
G1 X96.768 Y102.821 E0.02042
G1 X96.913 Y103.169 F10800.000
G1 F1200.000
G1 X137.069 Y98.473 E1.26763
G1 X141.346 Y98.515 E0.13413
G1 X142.241 Y98.885 E0.03036
G1 X142.914 Y99.582 E0.03036
G1 X143.162 Y100.111 E0.01835
G1 X143.275 Y100.689 E0.01846
G1 X143.267 Y104.801 E0.12892
G1 X143.151 Y105.324 E0.01680
G1 X142.920 Y105.808 E0.01680
G1 X142.587 Y106.228 E0.01680
G1 X142.172 Y106.560 E0.01668
G1 X141.474 Y106.858 E0.02378
G1 X123.871 Y111.079 E0.56758
G1 X122.275 Y111.407 E0.05109
G1 X120.693 Y111.521 E0.04973
G1 X97.401 Y111.521 E0.73030
G1 X96.687 Y111.359 E0.02296
G1 X96.053 Y110.985 E0.02308
G1 X95.567 Y110.438 E0.02296
G1 X95.269 Y109.768 E0.02296
G1 X95.188 Y109.155 E0.01941
G1 X95.188 Y105.408 E0.11748
G1 X95.261 Y104.866 E0.01716
G1 X95.495 Y104.280 E0.01977
G1 X95.873 Y103.780 E0.01965
G1 X96.368 Y103.396 E0.01965
G1 X96.857 Y103.192 E0.01664
; printing object Steering_Bar.STL id:0 copy 0
;WIPE_START
G1 F8640.000
G1 X102.578 Y102.520 E-1.33000
;WIPE_END
G1 E-0.07000 F2100.000
G1 Z0.400 F10800.000
G1 X105.151 Y106.213
G1 Z0.200
G1 E1.40000 F2100.000
;TYPE:Perimeter
G1 F1200.000
G1 X105.929 Y106.236 E0.02440
G1 X120.803 Y106.237 E0.46638
G1 X137.129 Y101.637 E0.53181
G1 X139.608 Y101.637 E0.07774
G1 X139.608 Y103.768 E0.06681
G1 X138.188 Y103.867 E0.04465
G1 X136.724 Y104.173 E0.04690
G1 X123.148 Y107.998 E0.44224
G1 X121.838 Y108.271 E0.04194
G1 X120.503 Y108.363 E0.04197
G1 X106.047 Y108.363 E0.45326
M73 P2 R18
M73 Q2 S18
G1 X105.151 Y108.384 E0.02810
G1 X105.228 Y107.300 E0.03407
G1 X105.155 Y106.273 E0.03229
G1 X104.779 Y106.299 F10800.000
;TYPE:External perimeter
G1 F1200.000
G1 X104.769 Y106.163 E0.00427
G1 X98.568 Y106.163 E0.19443
G1 X98.460 Y106.153 E0.00341
G1 X98.460 Y105.797 E0.01115
G1 X104.453 Y105.786 E0.18789
G1 X104.941 Y105.829 E0.01538
G1 X105.934 Y105.859 E0.03115
G1 X120.751 Y105.860 E0.46457
G1 X137.077 Y101.260 E0.53181
G1 X139.985 Y101.260 E0.09120
G1 X139.985 Y104.140 E0.09031
G1 X139.687 Y104.141 E0.00936
G1 X138.240 Y104.241 E0.04549
G1 X136.813 Y104.539 E0.04568
G1 X123.237 Y108.364 E0.44224
G1 X121.890 Y108.646 E0.04316
G1 X120.516 Y108.740 E0.04319
G1 X106.051 Y108.740 E0.45352
G1 X105.043 Y108.764 E0.03162
G1 X104.546 Y108.811 E0.01566
G1 X98.460 Y108.802 E0.19081
G1 X98.460 Y108.447 E0.01113
G1 X98.568 Y108.436 E0.00341
G1 X104.769 Y108.436 E0.19443
G1 X104.850 Y107.300 E0.03572
G1 X104.783 Y106.359 E0.02958
G1 X104.893 Y106.226 F10800.000
;WIPE_START
G1 F8640.000
G1 X104.769 Y106.163 E-0.04527
G1 X99.205 Y106.163 E-1.28473
;WIPE_END
G1 E-0.07000 F2100.000
G1 Z0.400 F10800.000
G1 X138.727 Y101.750
G1 Z0.200
G1 E1.40000 F2100.000
;TYPE:Solid infill
;WIDTH:0.422688
G1 F1200.000
G1 X139.325 Y102.349 E0.02672
G1 X139.325 Y102.886 E0.01696
G1 X138.360 Y101.920 E0.04312
G1 X137.823 Y101.920 E0.01696
G1 X139.325 Y103.423 E0.06711
G1 X139.325 Y103.504 E0.00257
G1 X138.900 Y103.534 E0.01348
G1 X137.286 Y101.920 E0.07207
G1 X137.168 Y101.920 E0.00372
G1 X136.841 Y102.012 E0.01073
G1 X138.397 Y103.569 E0.06951
G1 X138.149 Y103.586 E0.00787
G1 X137.924 Y103.633 E0.00724
G1 X136.422 Y102.130 E0.06710
G1 X136.003 Y102.248 E0.01375
G1 X137.480 Y103.726 E0.06598
G1 X137.036 Y103.818 E0.01433
G1 X135.584 Y102.366 E0.06485
G1 X135.165 Y102.484 E0.01375
G1 X136.595 Y103.915 E0.06388
G1 X136.176 Y104.033 E0.01375
G1 X134.746 Y102.602 E0.06388
G1 X134.327 Y102.720 E0.01375
G1 X135.757 Y104.151 E0.06388
G1 X135.338 Y104.269 E0.01375
G1 X133.908 Y102.839 E0.06388
G1 X133.489 Y102.957 E0.01375
G1 X134.919 Y104.387 E0.06388
G1 X134.500 Y104.505 E0.01375
G1 X133.070 Y103.075 E0.06388
G1 X132.651 Y103.193 E0.01375
G1 X134.081 Y104.623 E0.06388
G1 X133.662 Y104.741 E0.01375
G1 X132.232 Y103.311 E0.06388
G1 X131.813 Y103.429 E0.01375
G1 X133.243 Y104.859 E0.06388
G1 X132.824 Y104.977 E0.01375
G1 X131.394 Y103.547 E0.06388
G1 X130.975 Y103.665 E0.01375
G1 X132.405 Y105.095 E0.06388
G1 X131.986 Y105.214 E0.01375
G1 X130.556 Y103.783 E0.06388
G1 X130.137 Y103.901 E0.01375
G1 X131.567 Y105.332 E0.06388
G1 X131.148 Y105.450 E0.01375
G1 X129.718 Y104.019 E0.06388
G1 X129.299 Y104.137 E0.01375
G1 X130.729 Y105.568 E0.06388
G1 X130.310 Y105.686 E0.01375
G1 X128.880 Y104.255 E0.06388
G1 X128.461 Y104.373 E0.01375
G1 X129.891 Y105.804 E0.06388
G1 X129.472 Y105.922 E0.01375
G1 X128.042 Y104.491 E0.06388
G1 X127.623 Y104.609 E0.01375
G1 X129.053 Y106.040 E0.06388
G1 X128.634 Y106.158 E0.01375
G1 X127.204 Y104.728 E0.06388
G1 X126.784 Y104.846 E0.01375
G1 X128.215 Y106.276 E0.06388
G1 X127.796 Y106.394 E0.01375
G1 X126.365 Y104.964 E0.06388
G1 X125.946 Y105.082 E0.01375
G1 X127.377 Y106.512 E0.06388
G1 X126.958 Y106.630 E0.01375
G1 X125.527 Y105.200 E0.06388
G1 X125.108 Y105.318 E0.01375
G1 X126.539 Y106.748 E0.06388
G1 X126.120 Y106.866 E0.01375
G1 X124.689 Y105.436 E0.06388
M73 Q3 S18
G1 X124.270 Y105.554 E0.01375
G1 X125.701 Y106.984 E0.06388
G1 X125.282 Y107.103 E0.01375
G1 X123.851 Y105.672 E0.06388
M73 P3 R18
G1 X123.432 Y105.790 E0.01375
G1 X124.863 Y107.221 E0.06388
G1 X124.444 Y107.339 E0.01375
G1 X123.013 Y105.908 E0.06388
G1 X122.594 Y106.026 E0.01375
G1 X124.025 Y107.457 E0.06388
G1 X123.606 Y107.575 E0.01375
G1 X122.175 Y106.144 E0.06388
G1 X121.756 Y106.262 E0.01375
G1 X123.187 Y107.693 E0.06388
G1 X122.749 Y107.792 E0.01418
G1 X121.337 Y106.380 E0.06304
G1 X120.918 Y106.498 E0.01375
G1 X122.305 Y107.885 E0.06191
G1 X121.860 Y107.978 E0.01433
G1 X120.403 Y106.520 E0.06510
G1 X119.866 Y106.520 E0.01696
G1 X121.366 Y108.020 E0.06700
G1 X120.863 Y108.055 E0.01591
G1 X119.328 Y106.520 E0.06855
G1 X118.791 Y106.520 E0.01696
G1 X120.352 Y108.080 E0.06968
G1 X119.815 Y108.080 E0.01696
G1 X118.254 Y106.520 E0.06969
G1 X117.717 Y106.520 E0.01696
G1 X119.278 Y108.080 E0.06969
G1 X118.740 Y108.080 E0.01696
G1 X117.180 Y106.520 E0.06969
G1 X116.643 Y106.520 E0.01696
G1 X118.203 Y108.080 E0.06969
G1 X117.666 Y108.080 E0.01696
G1 X116.106 Y106.520 E0.06969
G1 X115.569 Y106.519 E0.01696
G1 X117.129 Y108.080 E0.06970
G1 X116.592 Y108.080 E0.01696
G1 X115.032 Y106.519 E0.06970
G1 X114.494 Y106.519 E0.01696
G1 X116.055 Y108.080 E0.06970
G1 X115.518 Y108.080 E0.01696
G1 X113.957 Y106.519 E0.06970
G1 X113.420 Y106.519 E0.01696
G1 X114.981 Y108.080 E0.06970
G1 X114.444 Y108.080 E0.01696
G1 X112.883 Y106.519 E0.06971
G1 X112.346 Y106.519 E0.01696
G1 X113.907 Y108.080 E0.06971
G1 X113.370 Y108.080 E0.01696
G1 X111.809 Y106.519 E0.06971
G1 X111.272 Y106.519 E0.01696
G1 X112.833 Y108.080 E0.06971
G1 X112.296 Y108.080 E0.01696
G1 X110.735 Y106.519 E0.06971
G1 X110.198 Y106.519 E0.01696
G1 X111.759 Y108.080 E0.06972
G1 X111.222 Y108.080 E0.01696
G1 X109.660 Y106.519 E0.06972
G1 X109.123 Y106.519 E0.01696
G1 X110.684 Y108.080 E0.06972
G1 X110.147 Y108.080 E0.01696
G1 X108.586 Y106.519 E0.06972
G1 X108.049 Y106.519 E0.01696
G1 X109.610 Y108.080 E0.06972
G1 X109.073 Y108.080 E0.01696
G1 X107.512 Y106.519 E0.06973
G1 X106.975 Y106.519 E0.01696
G1 X108.536 Y108.080 E0.06973
G1 X107.999 Y108.080 E0.01696
G1 X106.438 Y106.519 E0.06973
G1 X105.900 Y106.518 E0.01698
G1 X107.462 Y108.080 E0.06976
G1 X106.925 Y108.080 E0.01696
G1 X105.463 Y106.618 E0.06529
G1 X105.504 Y107.196 E0.01830
G1 X106.388 Y108.080 E0.03948
G1 X105.855 Y108.085 E0.01682
G1 X105.323 Y107.553 E0.02376
; stop printing object Steering_Bar.STL id:0 copy 0
;LAYER_CHANGE
;Z:0.3
;HEIGHT:0.1
;BEFORE_LAYER_CHANGE
G92 E0.0
;0.3


;WIPE_START
G1 F8640.000
G1 X105.855 Y108.085 E-0.17375
G1 X106.388 Y108.080 E-0.12300
G1 X105.504 Y107.196 E-0.28870
G1 X105.463 Y106.618 E-0.13379
G1 X106.925 Y108.080 E-0.47744
G1 X107.462 Y108.080 E-0.12401
G1 X107.434 Y108.052 E-0.00929
;WIPE_END
G1 E-0.07000 F2100.000
G1 Z0.400 F10800.000
;AFTER_LAYER_CHANGE
;0.3
M104 S250 ; set temperature
M140 S90 ; set bed temperature
G1 X96.536 Y111.705
G1 Z0.300
G1 E1.40000 F2100.000
;TYPE:Skirt
;WIDTH:0.42
G1 F3000.000
G1 X95.816 Y111.278 E0.01387
G1 X95.258 Y110.654 E0.01387
G1 X94.912 Y109.892 E0.01387
G1 X94.811 Y109.155 E0.01233
G1 X94.811 Y105.388 E0.06241
G1 X94.906 Y104.733 E0.01098
G1 X95.178 Y104.075 E0.01179
G1 X95.610 Y103.510 E0.01179
G1 X96.168 Y103.076 E0.01172
G1 X96.823 Y102.797 E0.01179
G1 X137.069 Y98.096 E0.67138
G1 X140.944 Y98.096 E0.06422
G1 X141.489 Y98.159 E0.00909
G1 X142.022 Y98.333 E0.00929
G1 X142.512 Y98.615 E0.00936
G1 X142.934 Y98.990 E0.00936
G1 X143.271 Y99.443 E0.00936
G1 X143.534 Y100.034 E0.01071
G1 X143.651 Y100.665 E0.01064
G1 X143.635 Y104.902 E0.07020
G1 X143.486 Y105.506 E0.01030
G1 X143.204 Y106.064 E0.01037
G1 X142.805 Y106.542 E0.01030
G1 X142.310 Y106.918 E0.01030
G1 X141.562 Y107.224 E0.01340
G1 X123.953 Y111.446 E0.30003
G1 X122.324 Y111.781 E0.02757
G1 X120.702 Y111.899 E0.02693
G1 X97.352 Y111.896 E0.38690
G1 X96.595 Y111.719 E0.01288
G1 X96.687 Y111.359 F10800.000
G1 F3000.000
G1 X96.053 Y110.985 E0.01219
G1 X95.567 Y110.438 E0.01213
G1 X95.269 Y109.768 E0.01213
G1 X95.188 Y109.155 E0.01026
G1 X95.188 Y105.408 E0.06208
G1 X95.261 Y104.866 E0.00907
G1 X95.495 Y104.280 E0.01045
G1 X95.873 Y103.780 E0.01038
G1 X96.368 Y103.396 E0.01038
G1 X96.946 Y103.155 E0.01038
G1 X137.069 Y98.473 E0.66931
G1 X141.346 Y98.515 E0.07088
G1 X142.241 Y98.885 E0.01604
G1 X142.914 Y99.582 E0.01604
G1 X143.162 Y100.111 E0.00969
G1 X143.275 Y100.689 E0.00976
G1 X143.267 Y104.801 E0.06813
G1 X143.151 Y105.324 E0.00888
G1 X142.920 Y105.808 E0.00888
G1 X142.587 Y106.228 E0.00888
G1 X142.172 Y106.560 E0.00882
G1 X141.474 Y106.858 E0.01257
G1 X123.871 Y111.079 E0.29994
G1 X122.275 Y111.407 E0.02700
G1 X120.693 Y111.521 E0.02628
G1 X97.401 Y111.521 E0.38593
G1 X96.746 Y111.372 E0.01114
; printing object Steering_Bar.STL id:0 copy 0
;WIPE_START
G1 F8640.000
G1 X96.053 Y110.985 E-0.18318
G1 X95.567 Y110.438 E-0.16907
G1 X95.269 Y109.768 E-0.16907
G1 X95.188 Y109.155 E-0.14295
M73 Q4 S18
G1 X95.188 Y106.272 E-0.66573
;WIPE_END
G1 E-0.07000 F2100.000
G1 Z0.500 F10800.000
G1 X105.101 Y108.496
M73 P4 R18
G1 Z0.300
G1 E1.40000 F2100.000
M204 S800
;TYPE:Perimeter
;WIDTH:0.45
G1 F2700.000
G1 X105.101 Y106.103 E0.04263
G1 X120.785 Y106.104 E0.27944
G1 X137.110 Y101.504 E0.30219
G1 X140.080 Y101.504 E0.05292
G1 X140.080 Y103.897 E0.04264
G1 X139.634 Y103.897 E0.00795
G1 X138.221 Y103.994 E0.02524
G1 X136.728 Y104.302 E0.02716
G1 X123.151 Y108.127 E0.25131
G1 X121.828 Y108.404 E0.02408
G1 X120.479 Y108.496 E0.02409
G1 X105.161 Y108.496 E0.27292
M204 S1000
G1 X104.672 Y108.325 F10800.000
M204 S800
;TYPE:External perimeter
G1 F1500.000
G1 X104.672 Y106.275 E0.03652
G1 X97.943 Y106.275 E0.11989
G1 X97.943 Y105.675 E0.01069
G1 X120.726 Y105.675 E0.40591
G1 X137.051 Y101.075 E0.30219
G1 X140.509 Y101.075 E0.06161
G1 X140.509 Y104.325 E0.05791
G1 X139.649 Y104.326 E0.01532
G1 X138.279 Y104.420 E0.02447
G1 X136.829 Y104.719 E0.02637
G1 X123.253 Y108.544 E0.25130
G1 X121.887 Y108.829 E0.02486
G1 X120.494 Y108.925 E0.02488
G1 X97.943 Y108.925 E0.40178
G1 X97.943 Y108.325 E0.01069
G1 X104.612 Y108.325 E0.11882
M204 S1000
G1 X105.072 Y108.313 F10800.000
G1 X104.886 Y108.625
;TYPE:Gap fill
;WIDTH:0.192921
G1 F2400.000
G1 X98.157 Y108.625 E0.04797
;WIPE_START
G1 F8640.000
G1 X103.917 Y108.625 E-1.33000
;WIPE_END
G1 E-0.07000 F2100.000
G1 Z0.500 F10800.000
G1 X98.157 Y105.975
G1 Z0.300
G1 E1.40000 F2100.000
;WIDTH:0.192921
G1 F2400.000
G1 X104.886 Y105.975 E0.04797
;WIPE_START
G1 F8640.000
G1 X99.126 Y105.975 E-1.33000
;WIPE_END
G1 E-0.07000 F2100.000
G1 Z0.500 F10800.000
G1 X106.102 Y106.232
G1 Z0.300
G1 E1.40000 F2100.000
;TYPE:Solid infill
;WIDTH:0.452994
G1 F3087
G1 X105.422 Y106.912 E0.01725
G1 X105.422 Y107.522 E0.01095
G1 X106.519 Y106.425 E0.02784
G1 X107.129 Y106.425 E0.01095
G1 X105.422 Y108.132 E0.04332
G1 X105.422 Y108.175 E0.00077
G1 X105.990 Y108.175 E0.01018
G1 X107.740 Y106.425 E0.04440
G1 X108.350 Y106.425 E0.01095
G1 X106.600 Y108.175 E0.04440
G1 X107.210 Y108.175 E0.01095
G1 X108.960 Y106.425 E0.04440
G1 X109.571 Y106.425 E0.01095
G1 X107.820 Y108.175 E0.04440
G1 X108.431 Y108.175 E0.01095
G1 X110.181 Y106.425 E0.04440
G1 X110.791 Y106.425 E0.01095
G1 X109.041 Y108.175 E0.04440
G1 X109.651 Y108.175 E0.01095
G1 X111.401 Y106.425 E0.04440
G1 X112.012 Y106.425 E0.01095
G1 X110.262 Y108.175 E0.04440
G1 X110.872 Y108.175 E0.01095
G1 X112.622 Y106.425 E0.04440
G1 X113.232 Y106.425 E0.01095
G1 X111.482 Y108.175 E0.04440
G1 X112.092 Y108.175 E0.01095
G1 X113.842 Y106.425 E0.04440
G1 X114.453 Y106.425 E0.01095
G1 X112.703 Y108.175 E0.04440
G1 X113.313 Y108.175 E0.01095
G1 X115.063 Y106.425 E0.04440
G1 X115.673 Y106.425 E0.01095
G1 X113.923 Y108.175 E0.04440
G1 X114.533 Y108.175 E0.01095
G1 X116.284 Y106.425 E0.04440
G1 X116.894 Y106.425 E0.01095
G1 X115.144 Y108.175 E0.04440
G1 X115.754 Y108.175 E0.01095
G1 X117.504 Y106.425 E0.04440
G1 X118.114 Y106.425 E0.01095
G1 X116.364 Y108.175 E0.04440
G1 X116.975 Y108.175 E0.01095
G1 X118.725 Y106.425 E0.04440
G1 X119.335 Y106.425 E0.01095
G1 X117.585 Y108.175 E0.04440
G1 X118.195 Y108.175 E0.01095
G1 X119.945 Y106.425 E0.04440
G1 X120.556 Y106.425 E0.01095
G1 X118.805 Y108.175 E0.04440
G1 X119.416 Y108.175 E0.01095
G1 X121.298 Y106.293 E0.04775
G1 X122.148 Y106.053 E0.01584
G1 X120.026 Y108.175 E0.05383
M73 Q5 S18
G1 X120.468 Y108.175 E0.00793
G1 X120.649 Y108.163 E0.00325
G1 X122.997 Y105.814 E0.05959
G1 X123.847 Y105.575 E0.01584
G1 X121.304 Y108.118 E0.06452
M73 P5 R18
G1 X121.784 Y108.085 E0.00864
G1 X121.990 Y108.042 E0.00378
G1 X124.697 Y105.335 E0.06867
G1 X125.546 Y105.096 E0.01584
G1 X122.762 Y107.880 E0.07065
G1 X123.075 Y107.815 E0.00573
